packages/smooth_app/assets/preferences/login.svg

<svg width="121" height="121" viewBox="0 0 121 121" fill="none" xmlns="http://www.w3.org/2000/svg">
    <g clip-path="url(#clip0_3029_12191)">
        <path d="M120.421 0.581993C120.051 0.210392 119.548 0 119.023 0H95.2854C94.7659 0 94.2655 0.204927 93.8956 0.571064L51.5715 42.5156C47.5408 41.2806 43.2464 40.6712 38.8051 40.7969C16.7619 41.4199 -0.603503 59.8743 0.0165916 82.0174C0.636686 104.16 19.0029 121.607 41.0434 120.984C63.084 120.361 80.4494 101.906 79.8293 79.7659C79.7314 76.2603 79.1874 72.8749 78.2573 69.6589L84.8635 63.0138C85.2333 62.6422 85.4428 62.1367 85.4428 61.6093V61.6011L85.402 51.6717H95.318C95.8429 51.6717 96.3461 51.4613 96.716 51.0897C97.0858 50.7181 97.2953 50.2126 97.2953 49.6853V49.6798L97.2681 39.7477H107.171C107.695 39.7477 108.199 39.5373 108.568 39.1657C108.938 38.7941 109.148 38.2886 109.148 37.7613L109.134 27.8237H119.023C119.548 27.8237 120.051 27.6133 120.421 27.2417C120.791 26.8701 121 26.3646 121 25.8372V1.98643C121 1.45908 120.791 0.953595 120.421 0.581993Z" fill="#BEBEBE"/>
        <path d="M18.7932 70.3201C18.4913 70.3201 18.1894 70.2081 17.9528 69.9841C17.4605 69.5168 17.4388 68.7381 17.9039 68.2463C22.3343 63.5357 29.7564 63.328 34.4424 67.779C34.9347 68.2463 34.9565 69.025 34.4914 69.5168C34.0263 70.0086 33.2512 70.0332 32.7617 69.566C29.0547 66.044 23.1883 66.2107 19.6826 69.9349C19.4405 70.1917 19.1169 70.3201 18.7932 70.3201Z" fill="black"/>
        <path d="M46.2433 69.5441C45.9414 69.5441 45.6395 69.4321 45.4029 69.208C44.9106 68.7408 44.8889 67.9621 45.3539 67.4703C47.5025 65.186 50.4044 63.8827 53.5267 63.7925C56.6489 63.7023 59.6188 64.8445 61.8925 67.003C62.3848 67.4703 62.4065 68.249 61.9415 68.7408C61.4764 69.2326 60.7013 69.2545 60.2117 68.79C58.414 67.0823 56.0669 66.1751 53.5974 66.2516C51.1279 66.3199 48.8324 67.3528 47.1353 69.1589C46.8933 69.4157 46.5696 69.5441 46.246 69.5441H46.2433Z" fill="black"/>
        <path d="M69.3064 80.8916C69.3064 97.1956 56.1511 110.412 39.9226 110.412C23.6941 110.412 10.5388 97.1956 10.5388 80.8916H69.3064Z" fill="white"/>
        <path d="M67.525 44.1987C67.2096 44.1987 66.8941 44.0758 66.6547 43.8326C66.1788 43.3489 66.1842 42.5702 66.6656 42.0948L97.8852 11.1043C98.3666 10.6262 99.1417 10.6316 99.6149 11.1152C100.091 11.5989 100.085 12.3776 99.6041 12.853L68.3845 43.8435C68.1451 44.0812 67.8351 44.1987 67.525 44.1987Z" fill="black"/>
    </g>
    <defs>
        <clipPath id="clip0_3029_12191">
            <rect width="121" height="121" fill="white"/>
        </clipPath>
    </defs>
</svg>

<svg width="121" height="121" fill="none" xmlns="http://www.w3.org/2000/svg"><g clip-path="url(#a)"><path d="M120.421.582A1.974 1.974 0 0 0 119.023 0H95.285c-.52 0-1.02.205-1.39.571L51.573 42.516a39.671 39.671 0 0 0-12.767-1.72C16.762 41.42-.604 59.875.017 82.018c.62 22.143 18.986 39.59 41.026 38.967 22.041-.623 39.406-19.078 38.786-41.218a40.39 40.39 0 0 0-1.572-10.107l6.606-6.645c.37-.372.58-.877.58-1.405v-.008l-.041-9.93h9.916c.525 0 1.028-.21 1.398-.581.37-.372.58-.877.58-1.405v-.005l-.028-9.932h9.903c.524 0 1.028-.21 1.397-.582.37-.372.58-.877.58-1.405l-.014-9.937h9.889c.525 0 1.028-.21 1.398-.582.37-.372.579-.877.579-1.405V1.987c0-.528-.209-1.033-.579-1.405Z" fill="#BEBEBE"/><path d="M18.793 70.32a1.232 1.232 0 0 1-.89-2.074c4.431-4.71 11.853-4.918 16.54-.467.492.467.514 1.246.048 1.738a1.22 1.22 0 0 1-1.73.049c-3.706-3.522-9.573-3.355-13.078.369a1.218 1.218 0 0 1-.89.385ZM46.243 69.544a1.231 1.231 0 0 1-.89-2.074 11.604 11.604 0 0 1 8.174-3.678 11.587 11.587 0 0 1 8.365 3.211c.493.467.514 1.246.05 1.738a1.223 1.223 0 0 1-1.73.049 9.133 9.133 0 0 0-6.615-2.538 9.158 9.158 0 0 0-6.462 2.907 1.218 1.218 0 0 1-.889.385h-.003Z" fill="#000"/><path d="M69.306 80.892c0 16.304-13.155 29.52-29.383 29.52-16.229 0-29.384-13.216-29.384-29.52h58.767Z" fill="#fff"/><path d="M67.525 44.199a1.231 1.231 0 0 1-.86-2.104l31.22-30.99a1.217 1.217 0 0 1 1.73.01c.476.484.47 1.263-.01 1.738l-31.22 30.99c-.24.238-.55.356-.86.356Z" fill="#000"/></g><defs><clipPath id="a"><path fill="#fff" d="M0 0h121v121H0z"/></clipPath></defs></svg>
